X:1
T:Some Sweet Day (Chord)
T:Some Sweet Day (Chord)
T:S. H. Chord
T:S. H. Chord, 1892
T:Public Domain Courtesy of the Cyber Hymnal™
C:S. H. Chord
Z:Public Domain
Z:Courtesy of the Cyber Hymnal™
%%score ( 1 2 ) 3
L:1/8
Q:1/4=110
M:4/4
K:F
V:1 treble 
V:2 treble 
V:3 bass 
V:1
 [FA]3 [FG] [CF]2 [CF]2 | [EG]2 [EG]2 [FA]4 | [Fc]3 [Fd] [Fc]2 [FA]2 | [EG]6 z2 | %4
w: 1.~Some sweet day when|life is o’er,|We shall meet a-|bove;|
w: 2.~Tri- als here be-|low we meet,|Sor- row, pain and|care;|
w: 3.~Bright the dawn- ing|of that morn,|Night be turned to|day;|
 [FA]3 [FG] [CF]2 [CF]2 | [EG]2 [FA]2 [FB]4 | [FA]3 [FA] [EG]2 [EG]2 | F6 z2 || %8
w: We shall greet those|gone be- fore,|In that home of|love.|
w: In that hap- py|home so sweet,|Joy and peace we’ll|share.|
w: Part- ed friends no|fare- wells know,|Tears be wiped a-|way.|
"^Refrain" [FB]4 [FB]4 | [FA]6 z2 | [Fc]4 [FA]4 | [EG]6 z2 | [FA]3 [FG] [CF]2 [CF]2 | %13
w: |||||
w: Some sweet|day,|some sweet|day;|Oh! that hap- py|
w: |||||
 [EG]2 [FA]2 [FB]4 | [FA]4 [EG]4 | F6 z2 |] %16
w: |||
w: time will be,|Some sweet|day.|
w: |||
V:2
 x8 | x8 | x8 | x8 | x8 | x8 | x8 | F6 x2 || x8 | x8 | x8 | x8 | x8 | x8 | x8 | F6 x2 |] %16
V:3
 [F,C]3 [F,B,] [F,A,]2 [F,A,]2 | [C,C]2 [C,C]2 [F,C]4 | [F,A,]3 [F,B,] [F,A,]2 [F,C]2 | [C,C]6 z2 | %4
 [F,C]3 [F,B,] [F,A,]2 [F,A,]2 | [C,C]2 [F,C]2 [B,,D]4 | [F,C]3 [F,C] [C,B,]2 [C,B,]2 | %7
 [F,A,]6 z2 || [B,,D]4 [B,,D]4 | [F,C]6 z2 | [F,A,]4 [F,C]4 | [C,C]6 z2 | %12
 [F,C]3 [F,B,] [F,A,]2 [F,A,]2 | [C,C]2 [F,C]2 [B,,D]4 | [C,C]4 [C,B,]4 | [F,A,]6 z2 |] %16

